src/assets/Icons/02.svg

<svg width="40" height="25" viewBox="0 0 40 25" fill="none" xmlns="http://www.w3.org/2000/svg">
<path d="M1.592 5.984L0.683061 5.56696L0.679076 5.57587L1.592 5.984ZM5.048 1.728L5.61907 2.54891L5.62146 2.54723L5.048 1.728ZM15.48 1.728L14.901 2.54333L14.9077 2.54808L14.9145 2.55273L15.48 1.728ZM18.936 5.984L18.023 6.39215L18.0271 6.40102L18.936 5.984ZM19 18.688L18.0831 18.2889L19 18.688ZM15.608 22.912L16.171 23.7385L15.608 22.912ZM4.952 22.912L4.38902 23.7385L4.39457 23.7422L4.952 22.912ZM1.56 18.688L2.4769 18.2889L1.56 18.688ZM5.112 16.96L4.17311 17.3043L4.17502 17.3094L5.112 16.96ZM7.128 19.84L6.52489 20.6377L6.53115 20.6424L6.53749 20.647L7.128 19.84ZM13.432 19.84L14.032 20.64L14.0351 20.6377L13.432 19.84ZM15.448 16.96L16.385 17.3094L16.3869 17.3043L15.448 16.96ZM15.448 7.68L14.5091 8.02426L14.511 8.02938L15.448 7.68ZM13.432 4.768L12.8194 5.55847L12.8289 5.56566L13.432 4.768ZM7.128 4.768L7.73111 5.56566L7.73111 5.56566L7.128 4.768ZM5.112 7.68L6.04899 8.02939L6.05088 8.02425L5.112 7.68ZM1.376 12.352C1.376 10.0298 1.76303 8.05163 2.50492 6.39213L0.679076 5.57587C-0.200364 7.54304 -0.624 9.81016 -0.624 12.352H1.376ZM2.5009 6.40102C3.267 4.73132 4.3098 3.4597 5.61907 2.5489L4.47694 0.907094C2.8422 2.0443 1.581 3.61001 0.683104 5.56698L2.5009 6.40102ZM5.62146 2.54723C6.93175 1.63003 8.46612 1.16 10.264 1.16V-0.840002C8.09388 -0.840002 6.15091 -0.264696 4.47454 0.908767L5.62146 2.54723ZM10.264 1.16C12.0859 1.16 13.6168 1.63133 14.901 2.54333L16.059 0.912671C14.3992 -0.265998 12.4528 -0.840002 10.264 -0.840002V1.16ZM14.9145 2.55273C16.2413 3.46255 17.2801 4.73016 18.0231 6.39213L19.8489 5.57587C18.9706 3.61117 17.7054 2.04145 16.0455 0.90327L14.9145 2.55273ZM18.0271 6.40102C18.7874 8.05811 19.184 10.0331 19.184 12.352H21.184C21.184 9.80692 20.7486 7.53656 19.8449 5.56698L18.0271 6.40102ZM19.184 12.352C19.184 14.6547 18.807 16.6259 18.0831 18.2889L19.9169 19.0871C20.7717 17.1235 21.184 14.8706 21.184 12.352H19.184ZM18.0831 18.2889C17.3605 19.9489 16.3442 21.2006 15.045 22.0855L16.171 23.7385C17.8158 22.6181 19.0609 21.0537 19.9169 19.0871L18.0831 18.2889ZM15.045 22.0855C13.7663 22.9566 12.1896 23.416 10.264 23.416V25.416C12.5197 25.416 14.5057 24.8728 16.171 23.7385L15.045 22.0855ZM10.264 23.416C8.38615 23.416 6.81584 22.9589 5.50943 22.0818L4.39457 23.7422C6.07483 24.8704 8.04585 25.416 10.264 25.416V23.416ZM5.51497 22.0855C4.21577 21.2006 3.19952 19.9489 2.4769 18.2889L0.643102 19.0871C1.49915 21.0537 2.74423 22.6181 4.38904 23.7385L5.51497 22.0855ZM2.4769 18.2889C1.75299 16.6259 1.376 14.6547 1.376 12.352H-0.624C-0.624 14.8706 -0.211659 17.1235 0.643102 19.0871L2.4769 18.2889ZM3.408 12.352C3.408 14.2266 3.65288 15.8854 4.17312 17.3043L6.05088 16.6157C5.63245 15.4746 5.408 14.0614 5.408 12.352H3.408ZM4.17502 17.3094C4.69577 18.7059 5.46764 19.8383 6.52489 20.6377L7.73111 19.0423C7.03903 18.5191 6.46689 17.7314 6.04898 16.6106L4.17502 17.3094ZM6.53749 20.647C7.60416 21.4275 8.86277 21.8 10.264 21.8V19.8C9.23323 19.8 8.40117 19.5325 7.71851 19.033L6.53749 20.647ZM10.264 21.8C11.6988 21.8 12.9759 21.4321 14.032 20.64L12.832 19.04C12.1814 19.5279 11.3466 19.8 10.264 19.8V21.8ZM14.0351 20.6377C15.0924 19.8383 15.8642 18.7059 16.385 17.3094L14.511 16.6106C14.0931 17.7314 13.521 18.5191 12.8289 19.0423L14.0351 20.6377ZM16.3869 17.3043C16.9071 15.8854 17.152 14.2266 17.152 12.352H15.152C15.152 14.0614 14.9275 15.4746 14.5091 16.6157L16.3869 17.3043ZM17.152 12.352C17.152 10.419 16.9086 8.73479 16.385 7.33062L14.511 8.02938C14.9261 9.14254 15.152 10.573 15.152 12.352H17.152ZM16.3869 7.33574C15.8675 5.91936 15.0963 4.77272 14.0351 3.97034L12.8289 5.56566C13.517 6.08595 14.0898 6.88064 14.5091 8.02425L16.3869 7.33574ZM14.0446 3.97758C12.9879 3.15865 11.7061 2.776 10.264 2.776V4.776C11.3392 4.776 12.1695 5.05468 12.8194 5.55841L14.0446 3.97758ZM10.264 2.776C8.8553 2.776 7.59215 3.16339 6.52489 3.97034L7.73111 5.56566C8.41319 5.04994 9.2407 4.776 10.264 4.776V2.776ZM6.52489 3.97034C5.46369 4.77272 4.69246 5.91936 4.17312 7.33574L6.05088 8.02425C6.4702 6.88064 7.04298 6.08595 7.73111 5.56566L6.52489 3.97034ZM4.17502 7.33062C3.65143 8.73479 3.408 10.419 3.408 12.352H5.408C5.408 10.573 5.6339 9.14254 6.04898 8.02938L4.17502 7.33062ZM39.2585 23.968L39.2605 24.968L40.2585 24.966V23.968H39.2585ZM23.0345 24H22.0345V25.002L23.0365 25L23.0345 24ZM23.0345 20.928L22.389 20.1642L22.0345 20.4639V20.928H23.0345ZM30.6825 14.464L30.0403 13.6975L30.037 13.7003L30.6825 14.464ZM32.6665 12.64L31.9594 11.9329L31.9525 11.9398L31.9457 11.9469L32.6665 12.64ZM33.9785 11.072L33.1409 10.5257L33.9785 11.072ZM33.8825 4.928L33.1543 5.61336L33.8825 4.928ZM27.9625 5.12L27.2099 4.46149L27.9625 5.12ZM26.8105 8.64V9.64H27.7963L27.8104 8.65428L26.8105 8.64ZM22.7465 8.64L21.7466 8.6275L21.7339 9.64H22.7465V8.64ZM23.8025 4.192L24.6816 4.66877L24.6849 4.66259L23.8025 4.192ZM26.6825 1.248L27.1656 2.12365L27.177 2.11716L26.6825 1.248ZM35.2905 1.12L34.8306 2.00799L34.8401 2.01287L34.8496 2.01755L35.2905 1.12ZM38.1065 3.712L37.2433 4.21688V4.21688L38.1065 3.712ZM38.7465 10.112L37.7925 9.81217L37.7897 9.82098L37.7871 9.82983L38.7465 10.112ZM37.7545 12.256L38.5906 12.8047L38.5982 12.7929L37.7545 12.256ZM36.0905 14.336L36.8193 15.0207L36.0905 14.336ZM33.7545 16.544L34.4039 17.3045L34.4053 17.3033L33.7545 16.544ZM28.0585 21.408L27.4118 22.1708L28.0608 22.721L28.7079 22.1685L28.0585 21.408ZM26.5865 20.16V19.16H23.8607L25.9398 20.9228L26.5865 20.16ZM39.2585 20.16H40.2585V19.16H39.2585V20.16ZM39.2565 22.968L23.0325 23L23.0365 25L39.2605 24.968L39.2565 22.968ZM24.0345 24V20.928H22.0345V24H24.0345ZM23.68 21.6917L31.328 15.2277L30.037 13.7003L22.389 20.1642L23.68 21.6917ZM31.3247 15.2305C32.133 14.5533 32.8224 13.9206 33.3873 13.3331L31.9457 11.9469C31.4439 12.4687 30.8107 13.052 30.0403 13.6975L31.3247 15.2305ZM33.3736 13.3471C33.9619 12.7588 34.448 12.1826 34.8161 11.6183L33.1409 10.5257C32.869 10.9427 32.4805 11.4118 31.9594 11.9329L33.3736 13.3471ZM34.8161 11.6183C35.1805 11.0596 35.4588 10.4838 35.6392 9.89116L33.7258 9.30884C33.6075 9.69753 33.4165 10.1031 33.1409 10.5257L34.8161 11.6183ZM35.6392 9.89116C35.8205 9.29531 35.9065 8.6627 35.9065 8H33.9065C33.9065 8.4893 33.8431 8.92336 33.7258 9.30884L35.6392 9.89116ZM35.9065 8C35.9065 6.50823 35.5189 5.20762 34.6107 4.24263L33.1543 5.61336C33.6114 6.09904 33.9065 6.84644 33.9065 8H35.9065ZM34.6107 4.24263C33.6951 3.26986 32.4442 2.84 31.0025 2.84V4.84C32.0355 4.84 32.7045 5.13547 33.1543 5.61336L34.6107 4.24263ZM31.0025 2.84C29.4756 2.84 28.1722 3.36181 27.2099 4.46149L28.7151 5.7785C29.2462 5.17152 29.9694 4.84 31.0025 4.84V2.84ZM27.2099 4.46149C26.2632 5.54347 25.8342 6.97136 25.8106 8.62572L27.8104 8.65428C27.8294 7.32198 28.1685 6.4032 28.7151 5.7785L27.2099 4.46149ZM26.8105 7.64H22.7465V9.64H26.8105V7.64ZM23.7464 8.6525C23.7661 7.07709 24.0898 5.7598 24.6815 4.66876L22.9235 3.71524C22.1499 5.14153 21.7696 6.78958 21.7466 8.6275L23.7464 8.6525ZM24.6849 4.66259C25.279 3.54858 26.1024 2.71014 27.1656 2.12358L26.1994 0.372421C24.7879 1.15119 23.6913 2.27541 22.9201 3.72141L24.6849 4.66259ZM27.177 2.11716C28.2418 1.51134 29.5062 1.192 31.0025 1.192V-0.808001C29.2134 -0.808001 27.5979 -0.423344 26.188 0.378836L27.177 2.11716ZM31.0025 1.192C32.5437 1.192 33.8078 1.47833 34.8306 2.00799L35.7504 0.232004C34.3838 -0.475665 32.7893 -0.808001 31.0025 -0.808001V1.192ZM34.8496 2.01755C35.8957 2.53144 36.6847 3.26178 37.2433 4.21688L38.9697 3.20712C38.2057 1.90088 37.1173 0.903221 35.7314 0.222445L34.8496 2.01755ZM37.2433 4.21688C37.7983 5.16572 38.0985 6.33834 38.0985 7.776H40.0985C40.0985 6.05632 39.7374 4.51962 38.9697 3.20712L37.2433 4.21688ZM38.0985 7.776C38.0985 8.48863 37.9956 9.16597 37.7925 9.81217L39.7005 10.4118C39.9667 9.5647 40.0985 8.6847 40.0985 7.776H38.0985ZM37.7871 9.82983C37.6028 10.4565 37.3137 11.0861 36.9108 11.7191L38.5982 12.7929C39.0913 12.0179 39.4635 11.2182 39.7059 10.3942L37.7871 9.82983ZM36.9185 11.7073C36.5073 12.3338 35.9903 12.9821 35.3617 13.6513L36.8193 15.0207C37.5133 14.2819 38.1057 13.5435 38.5905 12.8047L36.9185 11.7073ZM35.3617 13.6513C34.7297 14.3241 33.9781 15.0353 33.1037 15.7847L34.4053 17.3033C35.3229 16.5167 36.1287 15.7559 36.8193 15.0207L35.3617 13.6513ZM33.1051 15.7835L27.4091 20.6475L28.7079 22.1685L34.4039 17.3045L33.1051 15.7835ZM28.7052 20.6452L27.2332 19.3972L25.9398 20.9228L27.4118 22.1708L28.7052 20.6452ZM26.5865 21.16H39.2585V19.16H26.5865V21.16ZM38.2585 20.16V23.968H40.2585V20.16H38.2585Z" fill="#FD943C"/>
</svg>

<svg width="40" height="25" fill="none" xmlns="http://www.w3.org/2000/svg"><path d="m1.592 5.984-.909-.417-.004.009.913.408Zm3.456-4.256.571.82h.002l-.573-.82Zm10.432 0-.579.815.007.005.007.005.565-.825Zm3.456 4.256-.913.408.004.009.909-.417ZM19 18.688l-.917-.4.917.4Zm-3.392 4.224.563.826-.563-.826Zm-10.656 0-.563.826.006.004.557-.83ZM1.56 18.688l.917-.4-.917.4Zm3.552-1.728-.939.344.002.005.937-.349Zm2.016 2.88-.603.798.006.004.006.005.591-.807Zm6.304 0 .6.8.003-.002-.603-.798Zm2.016-2.88.937.35.002-.006-.939-.344Zm0-9.28-.939.344.002.005.937-.349Zm-2.016-2.912-.613.79.01.008.603-.798Zm-6.304 0 .603.798-.603-.798ZM5.112 7.68l.937.35.002-.006-.939-.344Zm-3.736 4.672c0-2.322.387-4.3 1.129-5.96L.679 5.576C-.2 7.543-.624 9.81-.624 12.352h2Zm1.125-5.951c.766-1.67 1.809-2.941 3.118-3.852L4.477.907C2.842 2.044 1.58 3.61.683 5.567l1.818.834Zm3.12-3.854c1.31-.917 2.845-1.387 4.643-1.387v-2c-2.17 0-4.113.575-5.79 1.749l1.147 1.638Zm4.643-1.387c1.822 0 3.353.471 4.637 1.383l1.158-1.63C14.399-.266 12.453-.84 10.264-.84v2Zm4.65 1.393c1.327.91 2.366 2.177 3.11 3.84l1.825-.817C18.97 3.61 17.705 2.04 16.046.903l-1.131 1.65ZM18.027 6.4c.76 1.657 1.157 3.632 1.157 5.951h2c0-2.545-.435-4.815-1.34-6.785l-1.817.834Zm1.157 5.951c0 2.303-.377 4.274-1.1 5.937l1.833.798c.855-1.963 1.267-4.216 1.267-6.735h-2Zm-1.1 5.937c-.724 1.66-1.74 2.912-3.039 3.796l1.126 1.653c1.645-1.12 2.89-2.684 3.746-4.65l-1.834-.8Zm-3.039 3.796c-1.279.872-2.855 1.331-4.781 1.331v2c2.256 0 4.242-.543 5.907-1.678l-1.126-1.652Zm-4.781 1.331c-1.878 0-3.448-.457-4.755-1.334l-1.114 1.66c1.68 1.128 3.65 1.674 5.869 1.674v-2Zm-4.749-1.33c-1.3-.885-2.315-2.137-3.038-3.797l-1.834.798c.856 1.967 2.101 3.531 3.746 4.651l1.126-1.652Zm-3.038-3.797c-.724-1.663-1.101-3.634-1.101-5.937h-2c0 2.519.412 4.771 1.267 6.735l1.834-.798Zm.931-5.937c0 1.875.245 3.533.765 4.952l1.878-.688c-.419-1.141-.643-2.555-.643-4.264h-2Zm.767 4.957c.52 1.397 1.293 2.53 2.35 3.329l1.206-1.596c-.692-.523-1.264-1.31-1.682-2.431l-1.874.698Zm2.362 3.338c1.067.78 2.326 1.153 3.727 1.153v-2c-1.03 0-1.863-.268-2.545-.767l-1.182 1.614Zm3.727 1.153c1.435 0 2.712-.368 3.768-1.16l-1.2-1.6c-.65.488-1.485.76-2.568.76v2Zm3.771-1.162c1.057-.8 1.83-1.932 2.35-3.329l-1.874-.698c-.418 1.12-.99 1.908-1.682 2.431l1.206 1.596Zm2.352-3.334c.52-1.419.765-3.077.765-4.952h-2c0 1.71-.224 3.123-.643 4.264l1.878.688Zm.765-4.952c0-1.933-.243-3.617-.767-5.021l-1.874.698c.415 1.114.641 2.544.641 4.323h2Zm-.765-5.016c-.52-1.417-1.29-2.563-2.352-3.366L12.83 5.566c.688.52 1.26 1.315 1.68 2.458l1.878-.688Zm-2.342-3.358c-1.057-.82-2.339-1.202-3.781-1.202v2c1.075 0 1.905.279 2.555.782l1.226-1.58Zm-3.781-1.202c-1.409 0-2.672.387-3.74 1.194l1.207 1.596c.682-.516 1.51-.79 2.533-.79v-2ZM6.524 3.97c-1.06.803-1.832 1.95-2.35 3.366l1.877.688c.42-1.143.992-1.938 1.68-2.458L6.525 3.97ZM4.176 7.33c-.524 1.405-.767 3.089-.767 5.022h2c0-1.779.226-3.21.641-4.323l-1.874-.698Zm35.083 16.638.002 1 .998-.002v-.998h-1ZM23.034 24h-1v1.002L23.038 25l-.002-1Zm0-3.072-.645-.764-.354.3v.464h1Zm7.649-6.464-.643-.767-.003.003.646.764Zm1.983-1.824-.707-.707-.006.007-.007.007.72.693Zm1.313-1.568-.838-.546.837.546Zm-.096-6.144-.729.685.728-.685Zm-5.92.192-.753-.659.752.659ZM26.81 8.64v1h.985l.014-.986-1-.014Zm-4.064 0-1-.013-.013 1.013h1.012v-1Zm1.055-4.448.88.477.003-.006-.883-.471Zm2.88-2.944.484.876.011-.007-.494-.869Zm8.609-.128-.46.888.01.005.009.005.44-.898Zm2.816 2.592-.864.505.863-.505Zm.64 6.4-.955-.3-.002.009-.003.009.96.282Zm-.992 2.144.836.549.007-.012-.843-.537Zm-1.665 2.08.73.685-.73-.685Zm-2.336 2.208.65.76h.001l-.65-.76Zm-5.695 4.864-.647.763.649.55.647-.552-.65-.761Zm-1.473-1.248v-1h-2.725l2.079 1.763.646-.763Zm12.672 0h1v-1h-1v1Zm-.002 2.808L23.033 23l.005 2 16.224-.032-.005-2ZM24.036 24v-3.072h-2V24h2Zm-.355-2.308 7.648-6.464-1.291-1.528-7.648 6.464 1.291 1.528Zm7.645-6.462a26.417 26.417 0 0 0 2.062-1.897l-1.441-1.386a24.477 24.477 0 0 1-1.906 1.75l1.285 1.534Zm2.049-1.883c.588-.588 1.074-1.164 1.442-1.729l-1.675-1.092c-.272.417-.66.886-1.182 1.407l1.415 1.414Zm1.442-1.729a6.784 6.784 0 0 0 .823-1.727l-1.913-.582a4.79 4.79 0 0 1-.585 1.217l1.675 1.092Zm.823-1.727A6.472 6.472 0 0 0 35.906 8h-2c0 .49-.063.923-.18 1.309l1.913.582ZM35.906 8c0-1.492-.387-2.792-1.295-3.757l-1.457 1.37c.457.486.752 1.233.752 2.387h2Zm-1.295-3.757c-.916-.973-2.167-1.403-3.608-1.403v2c1.032 0 1.702.295 2.151.773l1.457-1.37ZM31.003 2.84c-1.527 0-2.83.522-3.793 1.621l1.505 1.317c.531-.606 1.254-.938 2.288-.938v-2ZM27.21 4.461c-.947 1.082-1.376 2.51-1.4 4.165l2 .028c.02-1.332.359-2.25.905-2.875L27.21 4.46Zm-.4 3.179h-4.063v2h4.064v-2Zm-3.064 1.013c.02-1.576.344-2.893.936-3.984l-1.758-.954c-.774 1.427-1.154 3.075-1.177 4.912l2 .025Zm.939-3.99c.594-1.114 1.417-1.953 2.48-2.54L26.2.374c-1.411.778-2.508 1.902-3.279 3.348l1.765.942Zm2.492-2.546c1.065-.606 2.33-.925 3.826-.925v-2c-1.79 0-3.405.385-4.815 1.187l.989 1.738Zm3.826-.925c1.54 0 2.805.286 3.828.816l.92-1.776c-1.367-.708-2.962-1.04-4.748-1.04v2Zm3.847.826c1.046.513 1.835 1.244 2.393 2.199l1.727-1.01C38.206 1.901 37.117.903 35.73.222l-.881 1.796Zm2.393 2.199c.555.949.855 2.121.855 3.559h2c0-1.72-.36-3.256-1.128-4.569l-1.727 1.01Zm.855 3.559c0 .713-.102 1.39-.306 2.036l1.908.6a8.746 8.746 0 0 0 .398-2.636h-2Zm-.31 2.054a7.417 7.417 0 0 1-.877 1.89l1.687 1.073a9.421 9.421 0 0 0 1.108-2.399l-1.919-.564Zm-.87 1.877a14.448 14.448 0 0 1-1.556 1.944l1.457 1.37a16.427 16.427 0 0 0 1.771-2.216l-1.672-1.098Zm-1.556 1.944a28.965 28.965 0 0 1-2.258 2.134l1.301 1.518a30.977 30.977 0 0 0 2.414-2.282l-1.457-1.37Zm-2.257 2.133-5.696 4.864 1.299 1.52 5.696-4.863-1.299-1.521Zm-4.4 4.861-1.472-1.248-1.293 1.526 1.472 1.248 1.293-1.526Zm-2.118.515h12.671v-2H26.586v2Zm11.671-1v3.808h2V20.16h-2Z" fill="#FD943C"/></svg>
